Numix-Light-GalliumOS/22/status/battery-070-charging.svg

<svg xmlns="http://www.w3.org/2000/svg" viewBox="0 0 22 22">
 <path d="m 8 3 l 0 2 l -3 0 l 0 14 l 12 0 l 0 -14 l -3 0 l 0 -2 l -6 0 z m 5 3 l -1 5 l 3 0 l -6 7 l 1 -5 l -3 0 l 6 -7 z" style="fill:#353535;opacity:0.4;fill-opacity:1"/>
 <path d="m 5 7.801 0 11.199 l 12 0 0 -11.199 -4.359 0 l -0.641 3.199 l 3 0 -6 7 1 -5 -3 0 4.457 -5.199 -6.457 0 z" style="fill:#353535;opacity:1;fill-opacity:1"/>
</svg>

<?xml version="1.0" encoding="UTF-8" standalone="no"?>
<svg
   xmlns:dc="http://purl.org/dc/elements/1.1/"
   xmlns:cc="http://creativecommons.org/ns#"
   xmlns:rdf="http://www.w3.org/1999/02/22-rdf-syntax-ns#"
   xmlns:svg="http://www.w3.org/2000/svg"
   xmlns="http://www.w3.org/2000/svg"
   xmlns:sodipodi="http://sodipodi.sourceforge.net/DTD/sodipodi-0.dtd"
   xmlns:inkscape="http://www.inkscape.org/namespaces/inkscape"
   width="22"
   viewBox="0 0 22 22"
   height="22"
   id="svg2"
   version="1.1"
   inkscape:version="0.91 r"
   sodipodi:docname="gpm-battery-070-charging.svg">
  <metadata
     id="metadata14">
    <rdf:RDF>
      <cc:Work
         rdf:about="">
        <dc:format>image/svg+xml</dc:format>
        <dc:type
           rdf:resource="http://purl.org/dc/dcmitype/StillImage" />
        <dc:title />
      </cc:Work>
    </rdf:RDF>
  </metadata>
  <defs
     id="defs12" />
  <sodipodi:namedview
     pagecolor="#ffffff"
     bordercolor="#666666"
     borderopacity="1"
     objecttolerance="10"
     gridtolerance="10"
     guidetolerance="10"
     inkscape:pageopacity="0"
     inkscape:pageshadow="2"
     inkscape:window-width="1366"
     inkscape:window-height="747"
     id="namedview10"
     showgrid="false"
     inkscape:zoom="26.818182"
     inkscape:cx="9.5332248"
     inkscape:cy="11"
     inkscape:window-x="0"
     inkscape:window-y="21"
     inkscape:window-maximized="1"
     inkscape:current-layer="svg2" />
  <path
     style="fill:#353535;fill-opacity:1;opacity:0.4"
     d="M 8 3 L 8 5 L 5 5 L 5 19 L 17 19 L 17 5 L 14 5 L 14 3 L 8 3 z M 13 6 L 12 11 L 15 11 L 9 18 L 10 13 L 7 13 L 13 6 z "
     id="path6" />
  <path
     style="opacity:1;fill:#353535;fill-opacity:1"
     d="M 5,7.8007812 5,19 l 12,0 0,-11.1992188 -4.359375,0 L 12,11 l 3,0 -6,7 1,-5 -3,0 4.457031,-5.1992188 -6.457031,0 z"
     id="path6-7"
     inkscape:connector-curvature="0" />
</svg>
